src/assets/M.svg

<svg width="295" height="344" viewBox="0 0 295 344" fill="none" xmlns="http://www.w3.org/2000/svg">
<g style="mix-blend-mode:soft-light">
<path d="M-1.54483 37.3484C-12.0304 10.82 -37.5889 -5.22804 -78.2205 5.57982L-78.5482 3.61474C-36.2783 -7.84813 -10.0643 9.18243 0.748901 37.3484C7.95772 37.0209 15.4942 36.6933 23.0307 36.6933C59.4025 36.6933 130.835 50.7763 158.032 40.951C181.297 34.0733 182.28 34.0733 197.026 33.4182V35.7108C147.874 35.7108 105.277 103.178 66.939 163.44C46.6232 195.536 27.6182 225.34 9.26842 242.698C26.9628 230.252 48.2616 209.619 72.8372 186.366C131.491 130.034 207.839 56.6715 294.345 33.7457L295 35.7108C217.997 56.344 134.768 158.2 101.017 238.768C81.6843 284.947 66.939 358.309 146.564 337.021L147.219 338.986C57.7642 362.894 61.6962 296.737 88.5655 237.13C118.711 170.318 184.574 89.7501 251.747 51.4313C183.591 83.1999 122.971 141.169 74.4755 188.003C45.6402 213.549 9.26843 258.418 -20.8776 258.418V256.126C10.2514 251.54 34.4993 210.602 64.973 162.458C95.4467 114.641 128.542 62.5667 165.569 42.261C117.073 61.9117 73.1648 120.536 40.3974 153.287C-3.51086 197.174 -83.4633 279.379 -150.309 279.379C-180.455 279.379 -200.771 264.641 -209.618 244.99C-213.877 235.82 -215.516 225.995 -214.861 215.842C-214.205 205.361 -211.256 194.881 -206.013 185.056C-198.804 172.283 -187.991 160.492 -172.918 151.322C-167.348 105.471 -110.988 45.5361 -1.54483 37.3484ZM1.40424 39.6409C13.5282 74.6846 2.0596 126.104 -33.3292 161.147C-55.9387 184.073 -87.723 205.034 -121.146 205.034C-157.845 205.034 -175.54 182.763 -173.246 154.27C-187.336 163.113 -197.494 174.248 -204.047 186.038C-209.29 195.864 -211.911 206.016 -212.567 215.842C-213.222 225.667 -211.584 235.492 -207.652 244.008C-199.132 263.003 -179.472 277.086 -150.309 277.086C-90.3444 277.086 -18.9115 192.261 21.72 151.65C55.4704 117.916 98.3957 68.4619 146.891 45.8636C114.124 49.7938 55.4704 38.9859 23.0307 38.9859C15.4942 38.9859 8.2854 38.9859 1.40424 39.6409ZM-34.6399 159.51C-0.234131 125.121 11.2345 74.0296 -0.889465 39.6409C-107.711 47.1737 -163.743 105.143 -170.625 150.012C-151.292 138.877 -126.061 131.999 -93.9489 131.999V133.964C-126.389 133.964 -151.947 141.497 -170.952 152.632C-173.901 180.798 -157.19 202.741 -121.146 202.741C-88.3784 202.741 -57.2494 181.781 -34.6399 159.51Z" fill="#F7EFDA" fill-opacity="0.7"/>
</g>
</svg>

<svg xmlns="http://www.w3.org/2000/svg" fill="none" viewBox="0 0 295 344"><path fill="#f7efda" fill-opacity=".7" d="M-1.545 37.348C-12.03 10.82-37.589-5.228-78.22 5.58l-.328-1.965C-36.278-7.848-10.064 9.182.749 37.348c7.209-.327 14.745-.655 22.282-.655 36.372 0 107.804 14.083 135.001 4.258 23.265-6.878 24.248-6.878 38.994-7.533v2.293c-49.152 0-91.749 67.467-130.087 127.729-20.316 32.096-39.32 61.9-57.67 79.258 17.694-12.446 38.993-33.079 63.568-56.332 58.654-56.332 135.002-129.694 221.508-152.62L295 35.71C217.997 56.344 134.768 158.2 101.017 238.768c-19.333 46.179-34.078 119.541 45.547 98.253l.655 1.965c-89.455 23.908-85.523-42.249-58.653-101.856 30.145-66.812 96.008-147.38 163.181-185.699C183.591 83.2 122.971 141.17 74.476 188.003c-28.836 25.546-65.208 70.415-95.354 70.415v-2.292c31.13-4.586 55.377-45.524 85.851-93.668 30.474-47.817 63.569-99.891 100.596-120.197-48.496 19.65-92.404 78.275-125.172 111.026-43.908 43.887-123.86 126.092-190.706 126.092-30.146 0-50.462-14.738-59.309-34.389-4.259-9.17-5.898-18.995-5.243-29.148.656-10.481 3.605-20.961 8.848-30.786 7.209-12.773 18.022-24.564 33.095-33.734 5.57-45.851 61.93-105.786 171.373-113.974m2.95 2.293c12.123 35.044.655 86.463-34.734 121.506-22.61 22.926-54.394 43.887-87.817 43.887-36.699 0-54.394-22.271-52.1-50.764-14.09 8.843-24.248 19.978-30.801 31.768a73.4 73.4 0 0 0-8.52 29.804c-.655 9.825.983 19.65 4.915 28.166 8.52 18.995 28.18 33.078 57.343 33.078 59.965 0 131.398-84.825 172.029-125.436 33.75-33.734 76.676-83.188 125.171-105.786-32.767 3.93-91.42-6.878-123.86-6.878-7.537 0-14.746 0-21.627.655M-34.64 159.51C-.234 125.121 11.235 74.03-.89 39.64c-106.821 7.534-162.853 65.503-169.735 110.372 19.333-11.135 44.564-18.013 76.676-18.013v1.965c-32.44 0-57.998 7.533-77.003 18.668-2.949 28.166 13.762 50.109 49.806 50.109 32.768 0 63.897-20.96 86.506-43.231" style="mix-blend-mode:soft-light"/></svg>
